img/logo-pixelcast.svg

<svg width="147" height="28" viewBox="0 0 147 28" fill="none" xmlns="http://www.w3.org/2000/svg">
<path fill-rule="evenodd" clip-rule="evenodd" d="M10.5336 18.0208C15.7513 18.0208 19.3383 14.5911 19.3383 9.6494C19.3383 4.78144 15.7513 1.27797 10.5336 1.27797H0.859375V27.4249H6.58422V18.0208H10.5336ZM6.62046 13.0053V6.33033H9.95391C12.1279 6.33033 13.6135 7.5842 13.6135 9.68628C13.6135 11.7146 12.1279 13.0053 9.95391 13.0053H6.62046Z" fill="#737380"/>
<path d="M27.501 27.4249V9.09622H21.9936V27.4249H27.501Z" fill="#737380"/>
<path d="M21.5225 3.49069C21.5225 5.29773 22.9719 6.77288 24.7111 6.77288C26.5227 6.77288 27.9721 5.29773 27.9721 3.49069C27.9721 1.68364 26.5227 0.208496 24.7111 0.208496C22.9719 0.208496 21.5225 1.68364 21.5225 3.49069Z" fill="#737380"/>
<path fill-rule="evenodd" clip-rule="evenodd" d="M63.9808 20.8236C63.4735 22.2619 62.3503 23.2207 60.3574 23.2207C58.2197 23.2207 56.3718 21.7456 56.2631 19.6804H68.7998C68.836 19.5697 68.9085 18.7215 68.9085 17.9471C68.9085 12.0465 65.4663 8.54305 59.8864 8.54305C55.2123 8.54305 50.9006 12.3047 50.9006 18.2052C50.9006 24.3639 55.321 27.978 60.285 27.978C64.8504 27.978 67.7128 25.3228 68.5824 22.1512L63.9808 20.8236ZM56.3718 16.0663C56.4805 14.7018 57.64 12.9685 59.9589 12.9685C62.5677 12.9685 63.5097 14.6649 63.5822 16.0663H56.3718Z" fill="#737380"/>
<path d="M77.2274 27.4249V0.724796H71.72V27.4249H77.2274Z" fill="#737380"/>
<path d="M89.6603 13.706C91.798 13.706 92.885 15.0337 93.2836 16.435L98.2113 14.923C97.4142 11.6408 94.5155 8.54305 89.5516 8.54305C84.2615 8.54305 80.0584 12.5628 80.0584 18.279C80.0584 23.9583 84.3702 27.978 89.7327 27.978C94.5518 27.978 97.5229 24.8065 98.32 21.598L93.4648 20.086C93.0662 21.4505 91.8705 22.815 89.7327 22.815C87.4501 22.815 85.5297 21.1924 85.5297 18.279C85.5297 15.3287 87.3776 13.706 89.6603 13.706Z" fill="#737380"/>
<path fill-rule="evenodd" clip-rule="evenodd" d="M99.8263 22.3725C99.8263 25.2859 102.109 27.9411 106.058 27.9411C108.45 27.9411 110.189 26.9086 111.131 25.3596C111.131 26.6135 111.276 27.2773 111.312 27.4249H116.276C116.24 27.2405 116.059 26.0235 116.059 24.5852V15.6237C116.059 11.8621 113.921 8.54305 108.087 8.54305C102.797 8.54305 100.406 12.0096 100.189 14.628L104.971 15.6237C105.08 14.2592 106.131 12.9316 108.051 12.9316C109.79 12.9316 110.696 13.8536 110.696 14.923C110.696 15.55 110.37 16.0294 109.392 16.1769L105.153 16.8407C102.181 17.2833 99.8263 19.1272 99.8263 22.3725ZM107.399 23.8845C105.877 23.8845 105.261 22.9625 105.261 22.0037C105.261 20.713 106.131 20.1598 107.29 19.9754L110.696 19.4222V20.2335C110.696 23.0732 109.03 23.8845 107.399 23.8845Z" fill="#737380"/>
<path d="M118.483 22.225C118.628 24.2533 120.439 27.978 126.092 27.978C130.911 27.978 133.266 24.9171 133.266 21.7824C133.266 19.0903 131.454 16.8038 127.722 16.0294L125.331 15.55C124.534 15.4024 123.918 14.9599 123.918 14.1855C123.918 13.2266 124.824 12.5997 125.874 12.5997C127.541 12.5997 128.302 13.6323 128.447 14.8493L133.012 14.0011C132.831 11.8621 131.019 8.54305 125.802 8.54305C121.78 8.54305 118.881 11.2721 118.881 14.628C118.881 17.2095 120.403 19.4222 124.244 20.2704L126.309 20.7498C127.65 21.0449 128.085 21.598 128.085 22.2619C128.085 23.0732 127.396 23.8476 125.983 23.8476C124.099 23.8476 123.229 22.6306 123.157 21.3768L118.483 22.225Z" fill="#737380"/>
<path d="M142.716 3.74884H137.789V6.10906C137.789 7.80548 136.883 9.09622 134.999 9.09622H134.093V14.0011H137.281V21.8562C137.281 25.5072 139.564 27.7568 143.296 27.7568C145.035 27.7568 145.941 27.3511 146.158 27.2405V22.5938C145.832 22.6675 145.289 22.7782 144.709 22.7782C143.513 22.7782 142.716 22.3725 142.716 20.8605V14.0011H146.231V9.09622H142.716V3.74884Z" fill="#737380"/>
<path d="M34.1884 8.98559L30.452 12.7885L35.7786 18.2099L29.9035 24.1896L33.6399 27.9925L39.5149 22.0128L45.3975 28.0001L49.1339 24.1972L34.1884 8.98559Z" fill="#737380"/>
<path d="M44.8415 8.98559L48.5779 12.7885L44.8415 16.5914L41.1051 12.7885L44.8415 8.98559Z" fill="#737380"/>
</svg>

<svg width="147" height="28" fill="none" xmlns="http://www.w3.org/2000/svg"><path fill-rule="evenodd" clip-rule="evenodd" d="M10.534 18.02c5.217 0 8.804-3.429 8.804-8.37 0-4.869-3.587-8.372-8.804-8.372H.859v26.147h5.725V18.02h3.95ZM6.62 13.006V6.33h3.334c2.174 0 3.66 1.254 3.66 3.356 0 2.029-1.486 3.32-3.66 3.32H6.62Z" fill="#737380"/><path d="M27.501 27.425V9.096h-5.507v18.329H27.5ZM21.523 3.49c0 1.808 1.449 3.283 3.188 3.283 1.812 0 3.261-1.475 3.261-3.282S26.522.208 24.712.208c-1.74 0-3.19 1.476-3.19 3.283Z" fill="#737380"/><path fill-rule="evenodd" clip-rule="evenodd" d="M63.98 20.824c-.506 1.438-1.63 2.397-3.623 2.397-2.137 0-3.985-1.475-4.094-3.54H68.8c.036-.111.109-.96.109-1.734 0-5.9-3.443-9.404-9.023-9.404-4.674 0-8.985 3.762-8.985 9.662 0 6.159 4.42 9.773 9.384 9.773 4.565 0 7.428-2.655 8.297-5.827l-4.601-1.327Zm-7.608-4.758c.108-1.364 1.268-3.097 3.587-3.097 2.609 0 3.55 1.696 3.623 3.097h-7.21Z" fill="#737380"/><path d="M77.227 27.425V.725H71.72v26.7h5.507ZM89.66 13.706c2.138 0 3.225 1.328 3.624 2.729l4.927-1.512c-.797-3.282-3.695-6.38-8.66-6.38-5.29 0-9.493 4.02-9.493 9.736 0 5.68 4.312 9.699 9.675 9.699 4.819 0 7.79-3.172 8.587-6.38l-4.855-1.512c-.399 1.365-1.594 2.729-3.732 2.729-2.283 0-4.203-1.623-4.203-4.536 0-2.95 1.848-4.573 4.13-4.573Z" fill="#737380"/><path fill-rule="evenodd" clip-rule="evenodd" d="M99.826 22.372c0 2.914 2.283 5.57 6.232 5.57 2.392 0 4.131-1.033 5.073-2.582 0 1.253.145 1.917.181 2.065h4.964a18.38 18.38 0 0 1-.217-2.84v-8.961c0-3.762-2.138-7.081-7.972-7.081-5.29 0-7.681 3.467-7.898 6.085l4.782.996c.109-1.365 1.16-2.692 3.08-2.692 1.739 0 2.645.922 2.645 1.991 0 .627-.326 1.106-1.304 1.254l-4.239.664c-2.972.442-5.327 2.286-5.327 5.531Zm7.573 1.512c-1.522 0-2.138-.922-2.138-1.88 0-1.291.87-1.844 2.029-2.029l3.406-.553v.811c0 2.84-1.666 3.651-3.297 3.651Z" fill="#737380"/><path d="M118.483 22.225c.145 2.028 1.956 5.753 7.609 5.753 4.819 0 7.174-3.06 7.174-6.196 0-2.692-1.812-4.978-5.544-5.753l-2.391-.479c-.797-.148-1.413-.59-1.413-1.365 0-.958.906-1.585 1.956-1.585 1.667 0 2.428 1.032 2.573 2.25l4.565-.849c-.181-2.139-1.993-5.458-7.21-5.458-4.022 0-6.921 2.73-6.921 6.085 0 2.581 1.522 4.794 5.363 5.642l2.065.48c1.341.295 1.776.848 1.776 1.512 0 .811-.689 1.586-2.102 1.586-1.884 0-2.754-1.217-2.826-2.471l-4.674.848ZM142.716 3.749h-4.927v2.36c0 1.696-.906 2.987-2.79 2.987h-.906v4.905h3.188v7.855c0 3.651 2.283 5.9 6.015 5.9 1.739 0 2.645-.405 2.862-.515v-4.647a6.677 6.677 0 0 1-1.449.184c-1.196 0-1.993-.405-1.993-1.918v-6.859h3.515V9.096h-3.515V3.75ZM34.188 8.986l-3.736 3.803 5.327 5.42-5.876 5.98 3.737 3.803 5.875-5.98L45.398 28l3.736-3.803L34.188 8.986ZM44.842 8.986l3.736 3.803-3.736 3.802-3.737-3.803 3.737-3.802Z" fill="#737380"/></svg>
